X:520
M:C
L:1/8
K:G Minor
f>c e/d/B/A/ G2G:|
d|g>ab>g d>gb>g|a/g/f/d/ ~c>d f>c a<f|g>ab>g d>gb>g|b/a/g/f/ d>^f g/g/g ~g2|
g>ab>g a>^fg>d|f>c d<f A>Fc>A|D<G G>F D>GG<g|f>c d/c/B/A/ G2G||

